X:1
T: The Downeaster's Reel
C:Gordy Euler
R:Reel
Q: 232
K:G
M:4/4
L:1/8
|:GG, G,1/2G,1/2G, CG, EG,|DG, G,1/2G,1/2G, EG, FG,|GG, G,1/2G,1/2G, CG, EG,|DA, EA, F2 EF|
GG, G,1/2G,1/2G, CG, EG,|DG, G,1/2G,1/2G, EG, FG,|GC E1/2E1/2E DG, C1/2C1/2C|B,A, CA, G,4:|
|:GD ^CD AD CD|BG cG BG =FG|EC C1/2C1/2C DB, B,1/2B,1/2B,|DA, EA, F2 EF|
GD ^CD AD CD|BG cG BG BA|GC E1/2E1/2E DG, C1/2C1/2C|B,A, CA, G,4:|
